material/.icons/material/cogs.svg

<svg xmlns="http://www.w3.org/2000/svg" viewBox="0 0 24 24"><path d="M15.9 18.45c1.35 0 2.45-1.1 2.45-2.45s-1.1-2.45-2.45-2.45c-1.36 0-2.45 1.1-2.45 2.45s1.09 2.45 2.45 2.45m5.2-1.77l1.48 1.16c.13.11.17.29.08.45l-1.4 2.42a.35.35 0 01-.43.15l-1.74-.7c-.36.28-.76.51-1.18.69l-.27 1.85c-.02.17-.17.3-.34.3h-2.8c-.18 0-.32-.13-.35-.3l-.26-1.85c-.43-.18-.82-.41-1.18-.69l-1.75.7c-.15.06-.34 0-.42-.15l-1.4-2.42a.351.351 0 01.08-.45l1.48-1.16-.05-.68.05-.69-1.48-1.15a.353.353 0 01-.08-.45l1.4-2.42c.08-.16.27-.22.42-.16l1.75.71c.36-.28.75-.52 1.18-.69l.26-1.86c.03-.16.17-.29.35-.29h2.8c.17 0 .32.13.34.29l.27 1.86c.42.17.82.41 1.18.69l1.74-.71c.17-.06.34 0 .43.16l1.4 2.42c.09.15.05.34-.08.45l-1.48 1.15.05.69-.05.68M6.69 8.07c.87 0 1.57-.7 1.57-1.57 0-.87-.7-1.58-1.57-1.58A1.58 1.58 0 005.11 6.5c0 .87.71 1.57 1.58 1.57m3.34-1.13l.97.74c.07.07.09.19.03.29l-.9 1.56c-.05.1-.17.14-.27.1l-1.12-.45-.74.44-.19 1.19c-.02.11-.11.19-.22.19h-1.8c-.12 0-.21-.08-.23-.19L5.4 9.62l-.76-.44-1.14.45c-.09.04-.2 0-.26-.1l-.9-1.56c-.06-.1-.03-.22.05-.29l.95-.74-.03-.44.03-.44-.95-.74a.229.229 0 01-.05-.29l.9-1.56c.06-.1.17-.14.26-.1l1.13.45.77-.44.16-1.19c.02-.11.11-.19.23-.19h1.8c.11 0 .2.08.22.19L8 3.38l.74.44 1.12-.45c.1-.04.22 0 .27.1l.9 1.56c.06.1.04.22-.03.29l-.97.74.03.44-.03.44z"/></svg>

<?xml version="1.0" encoding="UTF-8"?><!DOCTYPE svg PUBLIC "-//W3C//DTD SVG 1.1//EN" "http://www.w3.org/Graphics/SVG/1.1/DTD/svg11.dtd"><svg xmlns="http://www.w3.org/2000/svg" xmlns:xlink="http://www.w3.org/1999/xlink" version="1.1" id="mdi-cogs" width="24" height="24" viewBox="0 0 24 24"><path d="M15.9,18.45C17.25,18.45 18.35,17.35 18.35,16C18.35,14.65 17.25,13.55 15.9,13.55C14.54,13.55 13.45,14.65 13.45,16C13.45,17.35 14.54,18.45 15.9,18.45M21.1,16.68L22.58,17.84C22.71,17.95 22.75,18.13 22.66,18.29L21.26,20.71C21.17,20.86 21,20.92 20.83,20.86L19.09,20.16C18.73,20.44 18.33,20.67 17.91,20.85L17.64,22.7C17.62,22.87 17.47,23 17.3,23H14.5C14.32,23 14.18,22.87 14.15,22.7L13.89,20.85C13.46,20.67 13.07,20.44 12.71,20.16L10.96,20.86C10.81,20.92 10.62,20.86 10.54,20.71L9.14,18.29C9.05,18.13 9.09,17.95 9.22,17.84L10.7,16.68L10.65,16L10.7,15.31L9.22,14.16C9.09,14.05 9.05,13.86 9.14,13.71L10.54,11.29C10.62,11.13 10.81,11.07 10.96,11.13L12.71,11.84C13.07,11.56 13.46,11.32 13.89,11.15L14.15,9.29C14.18,9.13 14.32,9 14.5,9H17.3C17.47,9 17.62,9.13 17.64,9.29L17.91,11.15C18.33,11.32 18.73,11.56 19.09,11.84L20.83,11.13C21,11.07 21.17,11.13 21.26,11.29L22.66,13.71C22.75,13.86 22.71,14.05 22.58,14.16L21.1,15.31L21.15,16L21.1,16.68M6.69,8.07C7.56,8.07 8.26,7.37 8.26,6.5C8.26,5.63 7.56,4.92 6.69,4.92A1.58,1.58 0 0,0 5.11,6.5C5.11,7.37 5.82,8.07 6.69,8.07M10.03,6.94L11,7.68C11.07,7.75 11.09,7.87 11.03,7.97L10.13,9.53C10.08,9.63 9.96,9.67 9.86,9.63L8.74,9.18L8,9.62L7.81,10.81C7.79,10.92 7.7,11 7.59,11H5.79C5.67,11 5.58,10.92 5.56,10.81L5.4,9.62L4.64,9.18L3.5,9.63C3.41,9.67 3.3,9.63 3.24,9.53L2.34,7.97C2.28,7.87 2.31,7.75 2.39,7.68L3.34,6.94L3.31,6.5L3.34,6.06L2.39,5.32C2.31,5.25 2.28,5.13 2.34,5.03L3.24,3.47C3.3,3.37 3.41,3.33 3.5,3.37L4.63,3.82L5.4,3.38L5.56,2.19C5.58,2.08 5.67,2 5.79,2H7.59C7.7,2 7.79,2.08 7.81,2.19L8,3.38L8.74,3.82L9.86,3.37C9.96,3.33 10.08,3.37 10.13,3.47L11.03,5.03C11.09,5.13 11.07,5.25 11,5.32L10.03,6.06L10.06,6.5L10.03,6.94Z" /></svg>
